svgs/sharp-regular/toggle-large-off.svg

<svg xmlns="http://www.w3.org/2000/svg" viewBox="0 0 576 512"><!--! Font Awesome Pro 6.6.0 by @fontawesome - https://fontawesome.com License - https://fontawesome.com/license (Commercial License) Copyright 2024 Fonticons, Inc. --><path d="M336 112L48 112l0 288 288 0 0-288zm48 336l-48 0L48 448 0 448l0-48L0 112 0 64l48 0 288 0 48 0 144 0 48 0 0 48 0 288 0 48-48 0-144 0zm0-336l0 288 144 0 0-288-144 0z"/></svg>

<svg xmlns="http://www.w3.org/2000/svg" viewBox="0 0 576 512"><!--! Font Awesome Pro 6.4.2 by @fontawesome - https://fontawesome.com License - https://fontawesome.com/license (Commercial License) Copyright 2023 Fonticons, Inc. --><path d="M336 112H48V400H336V112zm48 336H336 48 0V400 112 64H48 336h48H528h48v48V400v48H528 384zm0-336V400H528V112H384z"/></svg>
